!!!COM: Leoš [Leo Eugen] Janáček
!!!OTL: [T138_Jan-w4p13m2-1h2m1-6]
**kern	**dynam	**kern	**dynam	**kern	**dynam	**kern	**dynam	**kern	**dynam
*grp:A	*	*grp:A	*	*grp:A	*	*grp:A	*	*grp:B	*
*part5	*part5	*part4	*part4	*part3	*part3	*part2	*part2	*part1	*part1
*staff5	*	*staff4	*	*staff3	*	*staff2	*	*staff1	*
*I"Contrabass	*	*I"Violoncello	*	*I"Viola	*	*I"Violin II	*	*I"Violin I	*
*I'Cb.	*	*I'Vc.	*	*I'Vla.	*	*I'Vln. II	*	*I'Vln. I	*
*clefF4	*	*clefF4	*	*clefC3	*	*clefG2	*	*clefG2	*
*ITrd7c12	*	*	*	*	*	*	*	*	*
*kcancel	*	*kcancel	*	*kcancel	*	*kcancel	*	*kcancel	*
*k[f#c#]	*	*k[f#c#]	*	*k[f#c#]	*	*k[f#c#]	*	*k[f#c#]	*
*D:	*	*D:	*	*D:	*	*D:	*	*D:	*
*M3/4	*	*M3/4	*	*M3/4	*	*M3/4	*	*M3/4	*
=1	=1	=1	=1	=1	=1	=1	=1	=1	=1
!!LO:TX:B:t=[Allegro]
4%3ryy	.	4ryy	.	4ryy	.	4ryy	.	(12aaL	.
.	.	.	.	.	.	.	.	12gg#X	.
.	.	.	.	.	.	.	.	12cc#J)	.
.	.	4ryy	.	4ryy	.	4ryy	.	(12ee#XL	.
.	.	.	.	.	.	.	.	12dd#X	.
.	.	.	.	.	.	.	.	12b#XJ)	.
.	.	4ryy	4ryy	4ryy	4ryy	4ryy	4ryy	(12cc#L	4ryy
!	!	!	!	!	!	!	!	!LO:TX:B:t=rit.	!
.	.	.	.	.	.	.	.	12aa#X	.
.	.	.	.	.	.	.	.	12gg#J	.
=2	=2	=2	=2	=2	=2	=2	=2	=2	=2
4%3ryy	.	4ryy	.	4ryy	.	4ryy	.	12ee#XL	.
.	.	.	.	.	.	.	.	12dd#X	.
.	.	.	.	.	.	.	.	12g#XJ	.
*	*	*	*	*Xtuplet	*	*	*	*	*
*	*	*	*	*grp:B	*	*	*	*grp:A	*
.	.	2ryy	4ryy	(12e#XL	4ryy	4ryy	4ryy	4ryy	4ryy
.	.	.	.	12G#X	.	.	.	.	.
.	.	.	.	12c#J	.	.	.	.	.
!	!	!	!	!	!	!	!	!LO:TX:a:B:t=a tempo	!
.	.	.	.	12d#XL	.	4ryy	4ryy	4ryy	4ryy
.	.	.	.	12c#	.	.	.	.	.
.	.	.	.	12G#J)	.	.	.	.	.
=3||	=3||	=3||	=3||	=3||	=3||	=3||	=3||	=3||	=3||
*k[b-e-a-d-g-]	*	*k[b-e-a-d-g-]	*	*k[b-e-a-d-g-]	*	*k[b-e-a-d-g-]	*	*k[b-e-a-d-g-]	*
*D-:	*	*D-:	*	*D-:	*	*D-:	*	*D-:	*
!LO:TX:a:t=pizz.	!	!	!	!	!	!	!	!LO:TX:b:i:t=dolce	!
*	*	*	*	*tuplet	*	*	*	*	*
4ryy	4ryy	4ryy	4ryy	(12FL	4ryy	4ryy	.	4ryy	.
.	.	.	.	12A-	.	.	.	.	.
.	.	.	.	12d-J)	.	.	.	.	.
4ryy	.	4ryy	4ryy	(12e-L/	.	4ryy	.	4ryy	4ryy
.	.	.	.	12d-	.	.	.	.	.
.	.	.	.	12A-J	.	.	.	.	.
4ryy	.	4ryy	4ryy	12B-L	.	4ryy	.	4ryy	4ryy
.	.	.	.	12d-	.	.	.	.	.
.	.	.	.	12g-J)	.	.	.	.	.
=4	=4	=4	=4	=4	=4	=4	=4	=4	=4
*	*	*	*	*Xtuplet	*	*	*	*	*
4ryy	.	4ryy	4ryy	(12e-L	.	2.ryy	4ryy	4.ryy	4ryy
.	.	.	.	12d-	.	.	.	.	.
.	.	.	.	12A-J	.	.	.	.	.
4ryy	.	4ryy	4ryy	12G-L	.	.	.	.	.
.	.	.	.	12A-	.	.	.	.	.
.	.	.	.	.	.	.	.	8ryy	.
.	.	.	.	12cJ)	.	.	.	.	.
4ryy	.	4ryy	.	(12d-L	.	.	.	4ryy	4ryy
.	.	.	.	12B-	.	.	.	.	.
.	.	.	.	12A-J	.	.	.	.	.
!!linebreak:original
=5	=5	=5	=5	=5	=5	=5	=5	=5	=5
4ryy	.	4ryy	.	12FL	.	4%3ryy	.	4ryy	.
.	.	.	.	12A-	.	.	.	.	.
.	.	.	.	12d-J)	.	.	.	.	.
4ryy	.	4ryy	.	(12e-L	.	.	.	4ryy	4ryy
.	.	.	.	12d-	.	.	.	.	.
.	.	.	.	12A-J	.	.	.	.	.
4ryy	.	4ryy	.	12B-L	.	.	.	8ryy	.
.	.	.	.	12e-	.	.	.	.	.
.	.	.	.	.	.	.	.	8ryy	4ryy
.	.	.	.	12g-J)	.	.	.	.	.
=6	=6	=6	=6	=6	=6	=6	=6	=6	=6
4ryy	.	4ryy	.	(12e-L/	.	2.ryy	4ryy	4ryy	4ryy
.	.	.	.	12d-	.	.	.	.	.
.	.	.	.	12A-J	.	.	.	.	.
4ryy	.	4ryy	.	12G-L	.	.	.	4ryy	.
.	.	.	.	12A-	.	.	.	.	.
.	.	.	.	12cJ)	.	.	.	.	.
4ryy	.	4ryy	.	(12d-L	.	.	.	4ryy	4ryy
.	.	.	.	12B-	.	.	.	.	.
.	.	.	.	12A-J	.	.	.	.	.
=7	=7	=7	=7	=7	=7	=7	=7	=7	=7
*	*	*	*	*grp:A	*	*grp:B	*	*grp:B	*
4%3ryy	.	4ryy	.	4ryy	.	(12fL	4ryy	(12fL	4ryy
.	.	.	.	.	.	12a-	.	12a-	.
.	.	.	.	.	.	12dd-J)	.	12dd-J)	.
!	!	!	!LO:DY:rj	!	!LO:DY:rj	!	!	!	!
.	.	4ryy	4ryy	4ryy	4ryy	(12ee-L	.	(12ee-L	.
.	.	.	.	.	.	12dd-	.	12dd-	.
.	.	.	.	.	.	12a-J	.	12a-J	.
.	.	4ryy	4ryy	4ryy	.	12fL	.	12fL	.
.	.	.	.	.	.	12a-	.	12a-	.
.	.	.	.	.	.	12dd-J)	.	12dd-J)	.
=8	=8	=8	=8	=8	=8	=8	=8	=8	=8
*	*	*	*	*	*	*Xtuplet	*	*Xtuplet	*
4ryy	4ryy	4ryy	4ryy	4ryy	4ryy	(12ffL	.	(12ffL	.
.	.	.	.	.	.	12ee-	.	12ee-	.
.	.	.	.	.	.	12ccJ	.	12ccJ	.
4ryy	.	4ryy	.	4ryy	.	12fL	.	12fL	.
.	.	.	.	.	.	12an	.	12an	.
.	.	.	.	.	.	12ccJ)	.	12ccJ)	.
4ryy	.	4ryy	4ryy	4ryy	4ryy	(12ee-L	.	(12ee-L	.
.	.	.	.	.	.	12dd-	.	12dd-	.
.	.	.	.	.	.	12b-J)	.	12b-J)	.
=	=	=	=	=	=	=	=	=	=
*-	*-	*-	*-	*-	*-	*-	*-	*-	*-
!!!system-decoration: [({(s1,s2)}s3,s4,s5)]
!!!EED:Jason Lee
!!!EEV:2021/10/05
